brandFactory_export/2.Regular/Correcto_2Regular.svg

<?xml version="1.0" encoding="UTF-8"?>
<svg width="24px" height="24px" viewBox="0 0 24 24" version="1.1" xmlns="http://www.w3.org/2000/svg" xmlns:xlink="http://www.w3.org/1999/xlink">
    <title>2.Regular/Correcto_2Regular</title>
    <g id="Symbols" stroke="none" stroke-width="1" fill="none" fill-rule="evenodd">
        <g id="2.Regular/Correcto_2Regular" fill="#5CB615" fill-rule="nonzero">
            <path d="M11.794958,-5.32907052e-14 C15.5428571,-5.32907052e-14 18.4571429,0.978151261 20.4605042,2.90756303 C22.5411765,4.91092437 23.5932773,7.90252101 23.5932773,11.7983193 C23.5932773,15.6941176 22.5378151,18.6823529 20.4605042,20.6857143 C18.4571429,22.6151261 15.5428571,23.5932773 11.794958,23.5932773 C8.04705882,23.5932773 5.13277311,22.6151261 3.13277311,20.6857143 C1.05546218,18.6857143 0.00336134453,15.697479 0.00336134453,11.8016807 C0.00336134453,7.90588235 1.05546218,4.91428571 3.13277311,2.91092437 C5.13277311,0.981512605 8.05042017,-5.32907052e-14 11.794958,-5.32907052e-14 Z M11.794958,1.30756303 C4.83697479,1.30756303 1.30756303,4.83697479 1.30756303,11.8016807 C1.30756303,18.7596639 4.83697479,22.2890756 11.794958,22.2890756 C18.7563025,22.2890756 22.2890756,18.7596639 22.2890756,11.8016807 C22.2890756,4.84033613 18.7563025,1.30756303 11.794958,1.30756303 Z M17.3714286,6.62857143 C17.6436975,6.83361345 17.7008403,7.22016807 17.4957983,7.49243697 L10.5781513,16.7563025 C10.4638655,16.9109244 10.2857143,17.0016807 10.0941176,17.005042 L10.0806723,17.005042 C9.89243697,17.005042 9.71428571,16.9210084 9.59663866,16.7731092 L6.4302521,12.7932773 C6.21848739,12.5277311 6.26218487,12.1378151 6.52773109,11.9260504 C6.79327731,11.7142857 7.18319328,11.7579832 7.39495798,12.0235294 L10.0638655,15.3781513 L16.507563,6.75294118 C16.712605,6.48067227 17.0991597,6.42352941 17.3714286,6.62857143 Z" id="Correcto_2Regular"></path>
        </g>
    </g>
</svg>

<svg width="24" height="24" viewBox="0 0 24 24" xmlns="http://www.w3.org/2000/svg"><path d="M11.795 0c3.748 0 6.662.978 8.666 2.908 2.08 2.003 3.132 4.995 3.132 8.89 0 3.896-1.055 6.884-3.132 8.888-2.004 1.93-4.918 2.907-8.666 2.907s-6.662-.978-8.662-2.907c-2.078-2-3.13-4.989-3.13-8.884 0-3.896 1.052-6.888 3.13-8.891C5.133.98 8.05 0 11.795 0zm0 1.308c-6.958 0-10.487 3.529-10.487 10.494 0 6.958 3.529 10.487 10.487 10.487 6.961 0 10.494-3.53 10.494-10.487 0-6.962-3.533-10.494-10.494-10.494zm5.576 5.32c.273.206.33.592.125.864l-6.918 9.264a.613.613 0 01-.484.249h-.013a.617.617 0 01-.484-.232l-3.167-3.98a.619.619 0 01.098-.867.619.619 0 01.867.098l2.669 3.354 6.444-8.625a.617.617 0 01.863-.124z" fill="#5CB615" fill-rule="nonzero"/></svg>
